X: 4
T:Swedish Tune
R:48 bar Hornpipe
S:Electropathics
M:4/4
L:1/8
K:G
P:1
|:"G" G2 Bd  "Am7" G2 ce | "Bm7"  G2 Bd  "C" ed Bd | "D" D2 FG  "C" Ac B
A | "G" GG Bd  "C" edBd |"G" G2 Bd  "Am7" G2 ce | "Bm7"  G2 Bd  "C" ed B
d | "D" D2 FG  "C" Ac BA | "G"G2 "C" B2  "G" G2 z2 :|
P:2
|: "G" gf gd  "C"  e2 e2 | "Bm7" de dB  "C" G2 G2 | "D" D2 FG  "C" Ac BA
 | "G" GG Bd  "C" ed Bd | "G" gf gd  "C" e2 e2 | "Bm7" de dB  "Em" G2 G2
 | "D" D2 FG "C" Ac BA |1 "G"G2 "C" B2  "G" G4 :|2  "G"G2 "C" B2 "G" G2
